X:1
T:Floretta.(2 voices). TWC.295
T:Floretta.(2 voices). TWC.295
T:La Trenise
C:La Trenise
%%score 1 2
L:1/8
Q:1/4=100
M:2/4
K:C
V:1 treble 
V:2 bass 
V:1
"^Quadrilles   No. 4.  2d. Set" c/e/d/B/ cc | d>B c/c/c/c/ | d>B ce/g/ | f/e/d/c/ c/B/A/G/ | %4
 c/e/d/B/ cc | d>B c/c/c/c/ | d>B c/e/g/e/ | g/f/e/d/ c2!fine! :| Ge/c/ Gg/e/ | cc'/a/ g2 | %10
 g/f/d/f/ eg | f/e/d/c/ c/B/A/G/ | Ge/c/ Gg/e/ | cc'/a/ g2 | d'/c'/a/c'/ b/c'/^c'/d'/ | %15
 d'/c'/b/a/ g2 || ge/g/ fd/f/ | ec/e/ d/g/g/g/ | a/g/e/g/ g/f/d/f/ | f/e/c/e/ d2 | g/b/a/^f/ gg | %21
 a>^f g/g/g/g/ | a>f g/b/d'/b/ | d'/c'/b/a/ g2 |] %24
V:2
 C,G,E,G, | G,,D, C,E, | G,,D, C,E, | G,,G, G,,2 | C,G,E,G, | G,,D, C,E, | G,,D, C,E, | %7
 G,G,, C,2 :| C,G,E,G, | C,A,C,E, | G,2 C,2 | G,2 G,,2 | C,G,E,G, | C,A,C,E, | F,2 E,2 | %15
 D,D,, G,,2 || C,2 G,2 | C,2 B,,2 | C,2 G,2 | A,2 G,2 | G,D,B,,D, | D,2 G,2 | D,2 B,,C, | %23
 D,D,, G,,2 |] %24

